src/images/avatars/avatar-2.svg

<svg fill="none" height="81" viewBox="0 0 48 81" width="48" xmlns="http://www.w3.org/2000/svg"><path d="m43.8998 70.5c0-4.4-3.6-8-8-8h-24.6c-4.4 0-8 3.6-8 8v1.3c5.3 4.9 12.4 7.9 20.2 7.9 7.9 0 15-3 20.3-8v-1.2z" fill="#fff"/><path d="m43.8998 70.5c0-4.4-3.6-8-8-8h-24.6c-4.4 0-8 3.6-8 8v1.3c5.3 4.9 12.4 7.9 20.2 7.9 7.9 0 15-3 20.3-8v-1.2z" stroke="#4d4d4d" stroke-linejoin="round" stroke-miterlimit="10" stroke-width="2"/><path d="m27.4001 60.6v-14.5h-7.6v14.5c0 1.1-.9 2-2 2h-1.7c0 3.4 3.3 6.1 7.4 6.1s7.4-2.7 7.4-6.1h-1.5c-1.1 0-2-.9-2-2z" fill="#ebc8ba" stroke="#4d4d4d" stroke-linejoin="round" stroke-miterlimit="10" stroke-width="2"/><path d="m30.4002 64.4c-6.9.5-10.7-2.8-10.6-3.6.1-1.5-.1-.6-.1-.6l7.6.2s.4 2 1.9 2c0 .1 3-1.3 1.2 2z" fill="#b0968b" opacity=".5"/><g stroke="#4d4d4d" stroke-linejoin="round" stroke-miterlimit="10" stroke-width="2"><path d="m27.4001 60.6v-14.5h-7.6v14.5c0 1.1-.9 2-2 2h-1.7c0 3.4 3.3 6.1 7.4 6.1s7.4-2.7 7.4-6.1h-1.5c-1.1 0-2-.9-2-2z"/><path d="m4.90001 36.3c2.15392 0 3.90001-1.7461 3.90001-3.9s-1.74609-3.9-3.90001-3.9-3.90001 1.7461-3.90001 3.9 1.74609 3.9 3.90001 3.9z" fill="#ebc8ba"/><path d="m42.2999 36.3c2.1539 0 3.9-1.7461 3.9-3.9s-1.7461-3.9-3.9-3.9-3.9 1.7461-3.9 3.9 1.7461 3.9 3.9 3.9z" fill="#ebc8ba"/><path d="m42.2999 16.8c0 11.3-37.49997 11.3-37.49997 0 .1-8.29998 7.59997-15.79997 18.39997-15.79997 12.9 0 19.1 6.49999 19.1 15.79997z" fill="#808080"/><path d="m4.8999 18.5v18.2c0 10.2 8 18.9 18.2 19.1 10.6.3 19.2-8.2 19.2-18.7v-18.6z" fill="#ebc8ba"/><path d="m40.0001 23.8h-32.9c-2.2 0-4-1.8-4-4v-1.4c0-2.2 1.8-4 4-4h32.9c2.2 0 4 1.8 4 4v1.4c0 2.2-1.8 4-4 4z" fill="#808080"/><path d="m40.7002 15.4v9.4"/><path d="m36.8999 15.4v9.3"/><path d="m33.1001 15.3v9.4"/><path d="m29.2998 15.3v9.4"/><path d="m25.5 15.2v9.4"/><path d="m21.7002 15.2v9.4"/><path d="m17.8999 15.2v9.4"/><path d="m14.1 15.1v9.4"/><path d="m10.2999 15.1v9.4"/><path d="m6.5 15.1v9.4"/><path d="m4.8999 28.5 2.7 2.8h32.2l2.5-2.8"/><path d="m36.2999 35.3h-6.4c-1.7 0-3-1.3-3-3v-2.1c0-1.7 1.3-3 3-3h6.4c1.7 0 3 1.3 3 3v2.1c0 1.6-1.4 3-3 3z" fill="#fff"/><path d="m17.2999 35.3h-6.4c-1.69999 0-3-1.3-3-3v-2.1c0-1.7 1.30001-3 3-3h6.4c1.7 0 3 1.3 3 3v2.1c0 1.6-1.4 3-3 3z" fill="#fff"/></g><path d="m14.6997 32.8c.8285 0 1.5-.6715 1.5-1.5 0-.8284-.6715-1.5-1.5-1.5-.8284 0-1.5.6716-1.5 1.5 0 .8285.6716 1.5 1.5 1.5z" fill="#4d4d4d"/><path d="m32.5 32.8c.8284 0 1.5-.6715 1.5-1.5 0-.8284-.6716-1.5-1.5-1.5s-1.5.6716-1.5 1.5c0 .8285.6716 1.5 1.5 1.5z" fill="#4d4d4d"/><path d="m33.7001 47.3h-2.9l-.7-1.7c-.4-1.1-1.4-1.9-2.5-1.9h-7.3c-1.2 0-2.2.8-2.5 1.9l-.7 1.7h-3.5c-1.1 0-2.1-.5-2.7-1.4l-5.89998-9.2.5 4.4c0 11.1 6.79998 19 16.99998 19 11.1 0 19.5-7.7 19.5-19l.3-5.8-5.6 10.3c-.8 1.1-1.8 1.7-3 1.7z" fill="#b06445" stroke="#4d4d4d" stroke-linejoin="round" stroke-miterlimit="10" stroke-width="2"/><path d="m22.1001 37v1.7c0 .7.6 1.3 1.3 1.3h1.6" stroke="#4d4d4d" stroke-linecap="round" stroke-linejoin="round" stroke-miterlimit="10" stroke-width="2"/><path d="m9.7002 73.6v2.5" stroke="#4d4d4d" stroke-linecap="round" stroke-linejoin="round" stroke-miterlimit="10" stroke-width="2"/><path d="m37.6001 73.6v2.5" stroke="#4d4d4d" stroke-linecap="round" stroke-linejoin="round" stroke-miterlimit="10" stroke-width="2"/><path d="m21.7002 49.7c1.2.4 2.5.4 3.7 0" stroke="#4d4d4d" stroke-linecap="round" stroke-linejoin="round" stroke-miterlimit="10" stroke-width="2"/></svg>

<svg width="48" height="81" viewBox="0 0 48 81" fill="none" xmlns="http://www.w3.org/2000/svg">
<path d="M43.8998 70.5C43.8998 66.1 40.2998 62.5 35.8998 62.5H11.2998C6.8998 62.5 3.2998 66.1 3.2998 70.5V71.8C8.5998 76.7 15.6998 79.7 23.4998 79.7C31.3998 79.7 38.4998 76.7 43.7998 71.7V70.5H43.8998Z" fill="white"/>
<path d="M43.8998 70.5C43.8998 66.1 40.2998 62.5 35.8998 62.5H11.2998C6.8998 62.5 3.2998 66.1 3.2998 70.5V71.8C8.5998 76.7 15.6998 79.7 23.4998 79.7C31.3998 79.7 38.4998 76.7 43.7998 71.7V70.5H43.8998Z" stroke="#4D4D4D" stroke-width="2" stroke-miterlimit="10" stroke-linejoin="round"/>
<path d="M27.4001 60.6V46.1H19.8001V60.6C19.8001 61.7 18.9001 62.6 17.8001 62.6H16.1001C16.1001 66 19.4001 68.7 23.5001 68.7C27.6001 68.7 30.9001 66 30.9001 62.6H29.4001C28.3001 62.6 27.4001 61.7 27.4001 60.6Z" fill="#EBC8BA" stroke="#4D4D4D" stroke-width="2" stroke-miterlimit="10" stroke-linejoin="round"/>
<path opacity="0.5" d="M30.4002 64.4C23.5002 64.9 19.7002 61.6 19.8002 60.8C19.9002 59.3 19.7002 60.2 19.7002 60.2L27.3002 60.4C27.3002 60.4 27.7002 62.4 29.2002 62.4C29.2002 62.5 32.2002 61.1 30.4002 64.4Z" fill="#B0968B"/>
<path d="M27.4001 60.6V46.1H19.8001V60.6C19.8001 61.7 18.9001 62.6 17.8001 62.6H16.1001C16.1001 66 19.4001 68.7 23.5001 68.7C27.6001 68.7 30.9001 66 30.9001 62.6H29.4001C28.3001 62.6 27.4001 61.7 27.4001 60.6Z" stroke="#4D4D4D" stroke-width="2" stroke-miterlimit="10" stroke-linejoin="round"/>
<path d="M4.90001 36.3C7.05393 36.3 8.80002 34.5539 8.80002 32.4C8.80002 30.2461 7.05393 28.5 4.90001 28.5C2.74609 28.5 1 30.2461 1 32.4C1 34.5539 2.74609 36.3 4.90001 36.3Z" fill="#EBC8BA" stroke="#4D4D4D" stroke-width="2" stroke-miterlimit="10" stroke-linejoin="round"/>
<path d="M42.2999 36.3C44.4538 36.3 46.1999 34.5539 46.1999 32.4C46.1999 30.2461 44.4538 28.5 42.2999 28.5C40.146 28.5 38.3999 30.2461 38.3999 32.4C38.3999 34.5539 40.146 36.3 42.2999 36.3Z" fill="#EBC8BA" stroke="#4D4D4D" stroke-width="2" stroke-miterlimit="10" stroke-linejoin="round"/>
<path d="M42.2999 16.8C42.2999 28.1 4.79993 28.1 4.79993 16.8C4.89993 8.50002 12.3999 1.00003 23.1999 1.00003C36.0999 1.00003 42.2999 7.50002 42.2999 16.8Z" fill="#808080" stroke="#4D4D4D" stroke-width="2" stroke-miterlimit="10" stroke-linejoin="round"/>
<path d="M4.8999 18.5V36.7C4.8999 46.9 12.8999 55.6 23.0999 55.8C33.6999 56.1 42.2999 47.6 42.2999 37.1V18.5H4.8999Z" fill="#EBC8BA" stroke="#4D4D4D" stroke-width="2" stroke-miterlimit="10" stroke-linejoin="round"/>
<path d="M40.0001 23.8H7.1001C4.9001 23.8 3.1001 22 3.1001 19.8V18.4C3.1001 16.2 4.9001 14.4 7.1001 14.4H40.0001C42.2001 14.4 44.0001 16.2 44.0001 18.4V19.8C44.0001 22 42.2001 23.8 40.0001 23.8Z" fill="#808080" stroke="#4D4D4D" stroke-width="2" stroke-miterlimit="10" stroke-linejoin="round"/>
<path d="M40.7002 15.4V24.8" stroke="#4D4D4D" stroke-width="2" stroke-miterlimit="10" stroke-linejoin="round"/>
<path d="M36.8999 15.4V24.7" stroke="#4D4D4D" stroke-width="2" stroke-miterlimit="10" stroke-linejoin="round"/>
<path d="M33.1001 15.3V24.7" stroke="#4D4D4D" stroke-width="2" stroke-miterlimit="10" stroke-linejoin="round"/>
<path d="M29.2998 15.3V24.7" stroke="#4D4D4D" stroke-width="2" stroke-miterlimit="10" stroke-linejoin="round"/>
<path d="M25.5 15.2V24.6" stroke="#4D4D4D" stroke-width="2" stroke-miterlimit="10" stroke-linejoin="round"/>
<path d="M21.7002 15.2V24.6" stroke="#4D4D4D" stroke-width="2" stroke-miterlimit="10" stroke-linejoin="round"/>
<path d="M17.8999 15.2V24.6" stroke="#4D4D4D" stroke-width="2" stroke-miterlimit="10" stroke-linejoin="round"/>
<path d="M14.1 15.1V24.5" stroke="#4D4D4D" stroke-width="2" stroke-miterlimit="10" stroke-linejoin="round"/>
<path d="M10.2999 15.1V24.5" stroke="#4D4D4D" stroke-width="2" stroke-miterlimit="10" stroke-linejoin="round"/>
<path d="M6.5 15.1V24.5" stroke="#4D4D4D" stroke-width="2" stroke-miterlimit="10" stroke-linejoin="round"/>
<path d="M4.8999 28.5L7.5999 31.3H39.7999L42.2999 28.5" stroke="#4D4D4D" stroke-width="2" stroke-miterlimit="10" stroke-linejoin="round"/>
<path d="M36.2999 35.3H29.8999C28.1999 35.3 26.8999 34 26.8999 32.3V30.2C26.8999 28.5 28.1999 27.2 29.8999 27.2H36.2999C37.9999 27.2 39.2999 28.5 39.2999 30.2V32.3C39.2999 33.9 37.8999 35.3 36.2999 35.3Z" fill="white" stroke="#4D4D4D" stroke-width="2" stroke-miterlimit="10" stroke-linejoin="round"/>
<path d="M17.2999 35.3H10.8999C9.19991 35.3 7.8999 34 7.8999 32.3V30.2C7.8999 28.5 9.19991 27.2 10.8999 27.2H17.2999C18.9999 27.2 20.2999 28.5 20.2999 30.2V32.3C20.2999 33.9 18.8999 35.3 17.2999 35.3Z" fill="white" stroke="#4D4D4D" stroke-width="2" stroke-miterlimit="10" stroke-linejoin="round"/>
<path d="M14.6997 32.8C15.5282 32.8 16.1997 32.1285 16.1997 31.3C16.1997 30.4716 15.5282 29.8 14.6997 29.8C13.8713 29.8 13.1997 30.4716 13.1997 31.3C13.1997 32.1285 13.8713 32.8 14.6997 32.8Z" fill="#4D4D4D"/>
<path d="M32.5 32.8C33.3284 32.8 34 32.1285 34 31.3C34 30.4716 33.3284 29.8 32.5 29.8C31.6716 29.8 31 30.4716 31 31.3C31 32.1285 31.6716 32.8 32.5 32.8Z" fill="#4D4D4D"/>
<path d="M33.7001 47.3H30.8001L30.1001 45.6C29.7001 44.5 28.7001 43.7 27.6001 43.7H20.3001C19.1001 43.7 18.1001 44.5 17.8001 45.6L17.1001 47.3H13.6001C12.5001 47.3 11.5001 46.8 10.9001 45.9L5.00012 36.7L5.50012 41.1C5.50012 52.2 12.3001 60.1 22.5001 60.1C33.6001 60.1 42.0001 52.4 42.0001 41.1L42.3001 35.3L36.7001 45.6C35.9001 46.7 34.9001 47.3 33.7001 47.3Z" fill="#B06445" stroke="#4D4D4D" stroke-width="2" stroke-miterlimit="10" stroke-linejoin="round"/>
<path d="M22.1001 37V38.7C22.1001 39.4 22.7001 40 23.4001 40H25.0001" stroke="#4D4D4D" stroke-width="2" stroke-miterlimit="10" stroke-linecap="round" stroke-linejoin="round"/>
<path d="M9.7002 73.6V76.1" stroke="#4D4D4D" stroke-width="2" stroke-miterlimit="10" stroke-linecap="round" stroke-linejoin="round"/>
<path d="M37.6001 73.6V76.1" stroke="#4D4D4D" stroke-width="2" stroke-miterlimit="10" stroke-linecap="round" stroke-linejoin="round"/>
<path d="M21.7002 49.7C22.9002 50.1 24.2002 50.1 25.4002 49.7" stroke="#4D4D4D" stroke-width="2" stroke-miterlimit="10" stroke-linecap="round" stroke-linejoin="round"/>
</svg>
